X: 993
T: Twinkle Little Star
C:Traditional
B: jims roots
M:4/4
L:1/8
Q: 1/4=100
K:G
V:1 
B,A, |: "G"G,A,B,D EFG_B | !slide!=BGcd  !slide!BGD_E | "C"ECEG [c2G] !slide![E2c] | "G" [CD]!slide![DD][DD][GD] (G"slide"D) G,G, |
"G"G,B,B,B, DGG_B | !slide!=BGcd !slide!BGBG | "A"[G2A][GA][GB] [G^c][GB][GA][GA] | "D" [F2d][F2d] [Fd]G,B,A, ||
"G"G,A,B,D EFG_B | !slide!=BGcd  !slide!BGD_E | "C"ECEG [c2G] !slide![E2c]  | "G" [CD]!slide![DG][DG][DG] [D2G]G,G, |
"G"G,A,B,D GAA_B | !slide!=BGcd !slide!BG[GB][GB] | "A"[Gc]BAG "D"FDEF | "G"G2[B,2G] [B,G][GA][GB][Gc] ||
"D"[Dd][DB][De][DB] [Dd][DB][G,G][DB] | [Dd][DB][De][DB] [D2d][Dd][DA] | "1,3"[Bd][Bd][Bd][Bd] [B2e][Bd][Bd] | "D"[B2d]"2,3"[F2c] [F2c][FA][FB] |
"D"[Fc][FA][Fc][Fd] [Fc][FB][FA][FB] | [Fc][FA][Fc][Fd] [F2c][Fc][DA] | [F2d][Fd][Fd] [F2e][Fd][Fd] | "G"[Fd][DA][G2B] [G2B][GB][GB] ||
"G 1,3"[Bd][Bd][Bd]B [Bd][Bg]dB | BB_BA GGD^D | "C"ECEG c2E2 | "G"[D2G] [DG][DG] [DG]G,B,A, |
"G"G,A,B,D G2A_B | !slide!=BGcd !slide!BGBG | "A"cBAG "D"FDEF |[1 "G"G2[G,2G] [G,G]G,B,A, :|
V:2 "G"GEDB, G,4 |
% abcbook-tune_id 6298c29713236d0fe59e8fcb


% abcbook-boost 0
% abcbook-tablature 
% abcbook-transpose 
% abcbook-lastupdated 1654178456451
% abcbook-soundfonts 
% abcbook-repeats 1


